packages/ffe-icons/icons/open/300/md/fort.svg

<svg xmlns="http://www.w3.org/2000/svg" height="24" viewBox="0 -960 960 960" width="24"><path d="M50-189.999v-60.847q0-11.769 4.496-22.784 4.494-11.014 12.735-19.369l62.77-62.77v-248.392l-58.924-58.993q-9.846-9.846-15.46-23.107Q50-699.522 50-714.154V-800q0-12.75 8.628-21.375 8.63-8.624 21.384-8.624 12.756 0 21.371 8.624 8.615 8.625 8.615 21.375v50.001h100.002V-800q0-12.75 8.628-21.375 8.629-8.624 21.384-8.624 12.756 0 21.371 8.624 8.615 8.625 8.615 21.375v50.001h100.002V-800q0-12.75 8.628-21.375 8.629-8.624 21.384-8.624 12.756 0 21.371 8.624 8.615 8.625 8.615 21.375v85.846q0 14.632-5.615 27.893-5.615 13.261-15.462 23.107l-58.923 58.923v54.232h260.002v-54.232l-58.923-58.923q-9.847-9.846-15.462-23.107t-5.615-27.893V-800q0-12.75 8.628-21.375 8.629-8.624 21.384-8.624 12.756 0 21.371 8.624 8.615 8.625 8.615 21.375v50.001h100.002V-800q0-12.75 8.628-21.375 8.629-8.624 21.384-8.624 12.756 0 21.371 8.624 8.615 8.625 8.615 21.375v50.001h100.002V-800q0-12.75 8.628-21.375 8.629-8.624 21.384-8.624 12.756 0 21.371 8.624 8.615 8.625 8.615 21.375v85.846q0 14.632-5.615 27.893-5.615 13.261-15.462 23.107l-58.923 58.993v248.392l62.77 62.77q8.241 8.355 12.735 19.369 4.495 11.015 4.495 22.784v60.847q0 24.538-17.73 42.268t-42.268 17.73H606.154q-15.365 0-25.759-10.394t-10.394-25.759V-240q0-37.125-26.46-63.563-26.46-26.438-63.616-26.438t-63.541 26.438Q389.999-277.125 389.999-240v73.655q0 15.652-10.394 25.998-10.394 10.346-25.759 10.346H109.999q-24.538 0-42.268-17.73t-17.73-42.268Zm59.999 0h220.002V-240q0-62.154 43.923-106.076Q417.846-389.999 480-389.999q62.154 0 106.076 43.923Q629.999-302.154 629.999-240v50.001h220.002v-61.232l-80-80v-297.538l61.232-61.232H608.767l61.232 61.232v138.768H290.001v-138.768l61.232-61.232H128.767l61.232 61.232v297.538l-80 80v61.232ZM480-440Z"/></svg>

<svg xmlns="http://www.w3.org/2000/svg" height="24" viewBox="0 -960 960 960" width="24"><path d="M50-190v-60.85q0-11.77 4.5-22.78 4.49-11.01 12.73-19.37L130-355.77v-248.39l-58.92-58.99q-9.85-9.85-15.46-23.11Q50-699.52 50-714.15V-800q0-12.75 8.63-21.37Q67.26-830 80.01-830q12.76 0 21.37 8.63Q110-812.75 110-800v50h100v-50q0-12.75 8.63-21.37 8.63-8.63 21.38-8.63 12.76 0 21.37 8.63Q270-812.75 270-800v50h100v-50q0-12.75 8.63-21.37 8.63-8.63 21.38-8.63 12.76 0 21.37 8.63Q430-812.75 430-800v85.85q0 14.63-5.62 27.89-5.61 13.26-15.46 23.11L350-604.23V-550h260v-54.23l-58.92-58.92q-9.85-9.85-15.46-23.11-5.62-13.26-5.62-27.89V-800q0-12.75 8.63-21.37 8.63-8.63 21.38-8.63 12.76 0 21.37 8.63Q590-812.75 590-800v50h100v-50q0-12.75 8.63-21.37 8.63-8.63 21.38-8.63 12.76 0 21.37 8.63Q750-812.75 750-800v50h100v-50q0-12.75 8.63-21.37 8.63-8.63 21.38-8.63 12.76 0 21.37 8.63Q910-812.75 910-800v85.85q0 14.63-5.62 27.89-5.61 13.26-15.46 23.11L830-604.16v248.39L892.77-293q8.24 8.36 12.73 19.37 4.5 11.01 4.5 22.78V-190q0 24.54-17.73 42.27Q874.54-130 850-130H606.15q-15.36 0-25.76-10.39Q570-150.79 570-166.15V-240q0-37.13-26.46-63.56Q517.08-330 479.93-330q-37.16 0-63.55 26.44Q390-277.13 390-240v73.66q0 15.65-10.39 25.99Q369.21-130 353.85-130H110q-24.54 0-42.27-17.73Q50-165.46 50-190Zm60 0h220v-50q0-62.15 43.92-106.08Q417.85-390 480-390t106.08 43.92Q630-302.15 630-240v50h220v-61.23l-80-80v-297.54L831.23-690H608.77L670-628.77V-490H290v-138.77L351.23-690H128.77L190-628.77v297.54l-80 80V-190Zm370-250Z"/></svg>
